assets/symbols/mulberry/clean_room.svg

<svg height="850.394" viewBox="0 0 850.394 850.394" width="850.394" xmlns="http://www.w3.org/2000/svg"><path d="m647.225 246.511v511.312l-18.346 8.836-94.952-110.06h-.12v-304.35h.707l98.265-113.901z" fill="#fff5b4"/><path d="m366.898 311.452h-30.098l-11.062 39.615h-125.965v.586l-99.059-114.824 16.662-5.333 250.117-.069h253.051l12.235 6.921-98.265 113.901h-.707v-1.182h-125.025l-11.071-39.615z" fill="#fff"/><path d="m103.976 767.712 95.798-111.036h334.033v-.077h.12l94.952 110.061-22.374 10.77-239.711.068h-271.257zm171.611-53.749v-.034l.017-.009h-.06l.026.025z" fill="#faa41a"/><path d="m199.773 351.653v-.586h125.964l-7.887 28.242h98.818l-7.887-28.242h125.024v305.609h-334.032zm230.28 144.733v-.043l.009-.009h-.07l.034.034zm-101.364 56.165v-87.971h-98.654v87.971z" fill="#fff5b4"/><path d="m408.782 351.067 7.887 28.242h-98.818l7.887-28.242zm-41.884-39.615h30.813l11.071 39.615h-83.044l11.062-39.615z" fill="#f6cc4b"/><path d="m328.689 502.185v50.366h-49.366v-50.366zm0-37.605v37.605h-49.366v-37.605zm-49.366 83.269v4.702h-49.288v-87.971h49.288v37.605z" fill="#fff"/><path d="m199.773 351.653v305.023l-95.797 111.036-16.067-21.011v-505.773l12.805-4.099z" fill="#fff5b4"/><g fill="none" stroke="#231f20"><g stroke-width="14"><path d="m408.782 351.067h125.025v305.609h-334.034v-305.609h125.965"/><path d="m533.927 656.599 94.952 110.06 9.285 10.761-31.659.009-239.711.068h-271.257l8.439-9.785 95.797-111.036m.579-304.349-.579-.674-99.059-114.824-4.599-5.324 21.261-.009 250.117-.069h271.258l-5.972 6.921-98.265 113.901m-446.605-127.777v560.058m559.316-560.213v560.067m-318.536-282.199v50.366h-98.654v-87.971h98.654zm-49.366-36.268v81.932m0-45.664h49.366m38.209-235.492v44.759"/><path d="m325.738 351.067-7.887 28.242h98.818l-7.887-28.242-11.071-39.615h-60.911z"/></g><path d="m430.053 459.929v73.147m-32.152-36.742h64.467m-50.893 17.672 18.551-17.638.027-.025.009-.009 18.741-17.818" stroke-linecap="round" stroke-linejoin="round" stroke-width="7"/><path d="m448.406 513.842-18.353-17.456-.027-.018-.034-.034-18.906-17.982m-135.499 199.154v73.156m-32.143-36.742h64.467m-50.902 17.672 18.561-17.647.017-.016.017-.009 18.742-17.818" stroke-linecap="round" stroke-linejoin="round" stroke-width="7"/><path d="m293.949 731.428-18.362-17.465-.017-.018-.026-.025-18.915-17.991" stroke-linecap="round" stroke-linejoin="round" stroke-width="7"/></g><path d="m0 0h850.394v850.394h-850.394z" fill="none"/><g fill="#fff" stroke="#231f20" stroke-linecap="round" stroke-linejoin="round"><path d="m660.172 41.843v121.984m-53.602-61.275h107.491m-84.869 29.473 62.246-59.176m-.655 58.897-62.236-59.178" stroke-width="14"/><path d="m774.777 51.462v66.133m-29.059-33.22h58.276m-46.011 15.979 33.746-32.083m-.356 31.931-33.739-32.083" stroke-width="7"/><path d="m717.63 168.36v66.133m-29.06-33.22h58.277m-46.01 15.98 33.744-32.084m-.354 31.932-33.741-32.084" stroke-width="7"/></g></svg>

<svg xmlns="http://www.w3.org/2000/svg" width="850.394" height="850.394" viewBox="0 0 850.394 850.394" overflow="visible"><path fill="#fff5b4" d="M647.225 246.511v511.312l-18.346 8.836-94.952-110.06h-.12v-304.35h.707l98.265-113.901z"/><path fill="#fff" d="M366.898 311.452H336.8l-11.062 39.615H199.773v.586l-99.059-114.824 16.662-5.333 250.117-.069h253.051l12.235 6.921-98.265 113.901h-.707v-1.182H408.782l-11.071-39.615z"/><path d="M103.976 767.712l95.798-111.036h334.033v-.077h.12l94.952 110.061-22.374 10.77-239.711.068H95.537l8.439-9.786zm171.611-53.749v-.034l.017-.009h-.06l.026.025.017.018z" fill="#faa41a"/><path d="M199.773 351.653v-.586h125.964l-7.887 28.242h98.818l-7.887-28.242h125.024V656.676H199.773V351.653zm230.28 144.733v-.043l.009-.009H429.992l.034.034.027.018zm-101.364 56.165V464.58h-98.654v87.971h98.654z" fill="#fff5b4"/><path fill="#f6cc4b" d="M408.782 351.067l7.887 28.242h-98.818l7.887-28.242zM366.898 311.452h30.813l11.071 39.615h-83.044l11.062-39.615z"/><path fill="#fff" d="M328.689 502.185v50.366h-49.366v-50.366zM328.689 464.58v37.605h-49.366V464.58zM279.323 547.849v4.702h-49.288V464.58h49.288V502.185z"/><path fill="#fff5b4" d="M199.773 351.653v305.023l-95.797 111.036-16.067-21.011V240.928l12.805-4.099z"/><g fill="none" stroke="#231f20"><path stroke-width="14" d="M408.782 351.067h125.025V656.676H199.773V351.067h125.965"/><path stroke-width="14" d="M533.927 656.599l94.952 110.06 9.285 10.761-31.659.009-239.711.068H95.537l8.439-9.785 95.797-111.036M200.352 352.327l-.579-.674-99.059-114.824-4.599-5.324 21.261-.009 250.117-.069h271.258l-5.972 6.921-98.265 113.901M87.909 224.472V784.53M647.225 224.317v560.067M328.689 502.185v50.366h-98.654V464.58h98.654zM279.323 465.917v81.932M279.323 502.185h49.366M366.898 266.693v44.759"/><path stroke-width="14" d="M325.738 351.067l-7.887 28.242h98.818l-7.887-28.242-11.071-39.615H336.8z"/><path stroke-width="7" stroke-linecap="round" stroke-linejoin="round" d="M430.053 459.929V533.076M397.901 496.334h64.467M411.475 514.006l18.551-17.638.027-.025.009-.009 18.741-17.818"/><path stroke-width="7" stroke-linecap="round" stroke-linejoin="round" d="M448.406 513.842l-18.353-17.456-.027-.018-.034-.034-18.906-17.982M275.587 677.506v73.156M243.444 713.92H307.911M257.009 731.592l18.561-17.647.017-.016.017-.009 18.742-17.818"/><path stroke-width="7" stroke-linecap="round" stroke-linejoin="round" d="M293.949 731.428l-18.362-17.465-.017-.018-.026-.025-18.915-17.991"/></g><path fill="none" d="M0 0h850.394v850.394H0z"/><g fill="#fff" stroke="#231f20" stroke-width="14" stroke-linecap="round" stroke-linejoin="round"><path d="M660.172 41.843v121.984M606.57 102.552h107.491M629.192 132.025l62.246-59.176M690.783 131.746l-62.236-59.178"/></g><g fill="#fff" stroke="#231f20" stroke-width="7" stroke-linecap="round" stroke-linejoin="round"><path d="M774.777 51.462v66.133M745.718 84.375h58.276M757.983 100.354l33.746-32.083M791.373 100.202l-33.739-32.083"/></g><g fill="#fff" stroke="#231f20" stroke-width="7" stroke-linecap="round" stroke-linejoin="round"><path d="M717.63 168.36v66.133M688.57 201.273h58.277M700.837 217.253l33.744-32.084M734.227 217.101l-33.741-32.084"/></g></svg>
